app/images/icons/shopping-cart.svg

<svg xmlns="http://www.w3.org/2000/svg" preserveAspectRatio="xMidYMid" width="22" height="20"><path d="M21.934 5.216l-3.717 8.56a.813.813 0 01-.746.488H7.257a.814.814 0 01-.787-.597L3.147 1.629H.814A.817.817 0 010 .814c0-.449.366-.816.814-.816h2.943c.367 0 .692.245.787.598l3.323 12.038h9.062l3.011-6.929H9.902a.816.816 0 010-1.631h11.286c.271 0 .529.137.678.366a.829.829 0 01.068.776zM6.484 16.303a1.848 1.848 0 010 3.696 1.849 1.849 0 010-3.696zm11.408 0a1.85 1.85 0 011.519 3.057c-.326.38-.773.598-1.262.639h-.135a1.85 1.85 0 01-1.831-1.726 1.849 1.849 0 011.709-1.97z" fill="#fff" fill-rule="evenodd"/></svg>

<svg xmlns="http://www.w3.org/2000/svg" xmlns:xlink="http://www.w3.org/1999/xlink" preserveAspectRatio="xMidYMid" width="22" height="20" viewBox="0 0 22 20">
  <defs>
    <style>
      .cls-1 {
        fill: #fff;
        fill-rule: evenodd;
      }
    </style>
  </defs>
  <path d="M21.934,5.216 L18.217,13.776 C18.082,14.075 17.797,14.264 17.471,14.264 L7.257,14.264 C6.891,14.264 6.565,14.020 6.470,13.667 L3.147,1.629 L0.814,1.629 C0.366,1.629 -0.000,1.262 -0.000,0.814 C-0.000,0.365 0.366,-0.002 0.814,-0.002 L3.757,-0.002 C4.124,-0.002 4.449,0.243 4.544,0.596 L7.867,12.634 L16.929,12.634 L19.940,5.705 L9.902,5.705 C9.454,5.705 9.088,5.338 9.088,4.889 C9.088,4.440 9.454,4.074 9.902,4.074 L21.188,4.074 C21.459,4.074 21.717,4.211 21.866,4.440 C22.015,4.673 22.043,4.957 21.934,5.216 ZM6.484,16.303 C7.501,16.303 8.329,17.131 8.329,18.150 C8.329,19.169 7.501,19.999 6.484,19.999 C5.466,19.999 4.639,19.169 4.639,18.150 C4.639,17.131 5.466,16.303 6.484,16.303 ZM17.892,16.303 C18.909,16.235 19.791,17.009 19.859,18.015 C19.886,18.517 19.737,18.994 19.411,19.360 C19.085,19.740 18.638,19.958 18.149,19.999 C18.109,19.999 18.055,19.999 18.014,19.999 C17.051,19.999 16.250,19.238 16.183,18.273 C16.115,17.267 16.874,16.371 17.892,16.303 Z" class="cls-1"/>
</svg>
